!!!!SEGMENT: pl-kk--kk-i-343--001_gorczycki-grzegorz-gerwazy--judica-me-deus.krn
!!!cenid: 17xx:2154
!!!COM: Gorczycki, Grzegorz Gerwazy
!!!COM-rismid: pe30009207
!!!CDT: ~1666-1734/04/30
!!!CNT: Polish
!!!OTL: Judica me Deus
!!!PDT:
!!!AGN: Sacred
!!!SMS-siglum: PL-Kk
!!!SMS-shelfmark: Kk.I.343
!!!SMS-shelfwork: 001 W
!!!SMS-variant:
!!!SMS-altvar:
!!!NIFC-rismid: 1001145408
!!!URL-scan: http://repozytorium.nifc.pl/skany/pl-kk-nut--i-343
!!!ONB-nifc: UWAGA: utwory w zbiorze: 1. Judica me Deus, 2. Domine ne longe faciam, 3. Deo gratias
!!!key:
**kern	**fba	**text	**kern	**text	**kern	**text	**kern	**text	**kern	**text
*part5	*	*part5	*part4	*part4	*part3	*part3	*part2	*part2	*part1	*part1
*staff5	*	*staff5	*staff4	*staff4	*staff3	*staff3	*staff2	*staff2	*staff1	*staff1
*	*	*	*group1	*	*group1	*	*group1	*	*group1	*
*Iempty	*	*	*Iempty	*	*Itenor	*	*Ialto	*	*Ivox	*
*I"Baſso Continuo pro Org	*	*	*I"Baſso.	*	*I"Tenore.	*	*I"Alto	*	*I"Canto.	*
*I'org	*	*	*I'B	*	*I'T	*	*I'A	*	*I'S	*
*clefF4	*	*	*clefF4	*	*clefC4	*	*clefC3	*	*clefC1	*
*k[]	*	*	*k[]	*	*k[]	*	*k[]	*	*k[]	*
*a:	*	*	*a:	*	*a:	*	*a:	*	*a:	*
*M2/1	*	*	*M2/1	*	*M2/1	*	*M2/1	*	*M2/1	*
*met(C|)	*	*	*met(C|)	*	*met(C|)	*	*met(C)	*	*met(C|)	*
*>[A,B,C,A]	*	*	*>[A,B,C,A]	*	*>[A,B,C,A]	*	*>[A,B,C,A]	*	*>[A,B,C,A]	*
=1-	=1-	=1-	=1-	=1-	=1-	=1-	=1-	=1-	=1-	=1-
*>A	*	*	*>A	*	*>A	*	*>A	*	*>A	*
*2\right	*	*	*2\right	*	*	*	*	*	*	*
!LO:TX:b:t=Judica me	!	!	!	!	!	!	!	!	!	!
!LO:TX:a:t=Introitus pro \nD(omi)nica Paſsionis \nG.G.G.	!	!	!LO:TX:a:t=Introitus Pro \nDo(mi)nica Paſsionis	!	!	!	!	!	!LO:TX:a:t=Pro Dominica Paſsionis	!
2.E\	1	.	2.E\	Ju-	0r	.	00r	.	00r	.
!LO:TX:b:t=Unisono.	!	!	!LO:TX:t=P:problem=kreska pseudotaktowa	!	!	!	!	!	!	!
4E\	1	.	4E\	-di-	.	.	.	.	.	.
2E\	.	.	2E\	-ca	.	.	.	.	.	.
!LO:TX:t=P:problem=kreska pseudotaktowa	!	!	!LO:TX:t=P:problem=kreska pseudotaktowa	!	!	!	!	!	!	!
2E\	.	.	2E\	me	.	.	.	.	.	.
=2-	=2-	=2-	=2-	=2-	=2-	=2-	=2-	=2-	=2-	=2-
*^	*	*	*	*	*	*	*	*	*	*
2.A/	2C\	.	.	2C/	De-	2.A/	Ju-	.	.	.	.
!	!	!	!	!LO:TX:t=P:problem=kreska pseudotaktowa	!	!	!	!	!	!	!
.	2AA\	.	.	2AA/	-(us)	.	.	.	.	.	.
4A/	.	.	.	.	.	4A/	-di-	.	.	.	.
2A/	2F\	.	.	2F\	et	2A/	-ca	.	.	.	.
!LO:TX:t=P:problem=kreska pseudotaktowa	!	!	!	!LO:TX:t=P:problem=kreska pseudotaktowa	!	!LO:TX:t=P:problem=kreska pseudotaktowa	!	!	!	!	!
2A/	2D\	.	.	2D\	dis-	2A/	me	.	.	.	.
*v	*v	*	*	*	*	*	*	*	*	*	*
=3-	=3-	=3-	=3-	=3-	=3-	=3-	=3-	=3-	=3-	=3-
!	!	!	!LO:TX:t=P:problem=kreska pseudotaktowa	!	!	!	!	!	!	!
1E	#	.	1E	-cer-	2G#X/	De-	00r	.	00r	.
.	.	.	.	.	2E/	-us	.	.	.	.
*	*	*	*	*	*2\right	*	*	*	*	*
!	!LO:SIC:s=n	!	!	!	!	!	!	!	!	!
2AA/	-	.	2AA/	-ne	2c\	et	.	.	.	.
1A\	4 2	.	1A\	cau-	2A/	dis-	.	.	.	.
=4-	=4-	=4-	=4-	=4-	=4-	=4-	=4-	=4-	=4-	=4-
.	.	.	.	.	1B	-cer-	.	.	.	.
!	!	!	!LO:TX:t=P:problem=kreska pseudotaktowa	!	!	!	!	!	!	!
2G#X\	.	.	2G#X\	-sam	.	.	.	.	.	.
2A\	.	.	2A\	me-	2E/	-ne	.	.	.	.
!	!	!	!LO:LB:g=original	!	!	!	!	!	!	!
4AA/	.	.	4AA/	.	1e\	cau-	.	.	.	.
!LO:TX:t=P:problem=kreska pseudotaktowa	!	!	!LO:TX:t=P:problem=kreska pseudotaktowa	!	!	!	!	!	!	!
4BB/	.	.	4BB/	.	.	.	.	.	.	.
!LO:LB:g=original	!	!	!	!	!	!	!	!	!	!
=5-	=5-	=5-	=5-	=5-	=5-	=5-	=5-	=5-	=5-	=5-
*	*	*	*	*	*	*	*2\right	*	*	*
4C/	.	.	4C/	.	.	.	2.e\	Iu-	0r	.
4BB/	.	.	4BB/	.	.	.	.	.	.	.
4C/	.	.	4C/	.	2c\	-sam	.	.	.	.
!	!	!	!LO:TX:t=P:problem=kreska pseudotaktowa	!	!	!	!	!	!	!
4D/	.	.	4D/	.	.	.	4e\	-di-	.	.
!LO:TX:t=P:problem=kreska pseudotaktowa	!	!	!LO:TX:t=P:problem=kreska pseudotaktowa	!	!	!	!	!	!	!
1E	.	.	1E	.	1B	me-	2e\	-ca	.	.
!	!	!	!	!	!	!	!LO:TX:t=P:problem=kreska pseudotaktowa	!	!	!
.	.	.	.	.	.	.	2e\	me	.	.
=6-	=6-	=6-	=6-	=6-	=6-	=6-	=6-	=6-	=6-	=6-
*	*	*	*	*	*	*	*	*	*2\right	*
2.F\	.	.	2.F\	.	2A/	-am	2c/	De-	2.a\	Ju-
!	!	!	!	!	!LO:LB:g=original	!	!	!	!	!
.	.	.	.	.	1A	et	2A/	-us	.	.
!	!	!	!LO:TX:t=P:problem=kreska pseudotaktowa	!	!	!	!	!	!	!
4E\	.	.	4E\	.	.	.	.	.	4a\	-di-
2D\	.	.	2D\	.	.	.	2f\	et	2a\	-ca
!LO:TX:t=P:problem=kreska pseudotaktowa	!	!	!LO:TX:t=P:problem=kreska pseudotaktowa	!	!	!	!	!	!LO:TX:t=P:problem=kreska pseudotaktowa	!
2F\	6	.	2F\	.	2A/	dis-	2d\	di-	2a\	me
=7-	=7-	=7-	=7-	=7-	=7-	=7-	=7-	=7-	=7-	=7-
2.E\	#	.	2.E\	.	1B	-cer-	1e	-ſcer-	2g#X/	De-
.	.	.	.	.	.	.	.	.	2e/	-us
!	!	!	!LO:TX:t=P:problem=kreska pseudotaktowa	!	!	!	!	!	!	!
4D\	.	.	4D\	.	.	.	.	.	.	.
!LO:TX:t=P:problem=kreska pseudotaktowa	!	!	!LO:TX:t=P:problem=kreska pseudotaktowa	!	!	!	!	!	!	!
1C	5	.	1C	.	1c	-ne	2A/	-ne	2cc\	et
.	6	.	.	.	.	.	1a\	cau-	2a\	di-
=8-	=8-	=8-	=8-	=8-	=8-	=8-	=8-	=8-	=8-	=8-
!	!	!	!LO:TX:t=P:problem=kreska pseudotaktowa	!	!	!	!	!	!	!
1BB	7	.	1BB	.	2d\	cau-	.	.	1b	-scer-
.	#6r	.	.	.	2B\	-sam	2g#X\	-ſam	.	.
4AA/	.	.	4AA/	.	2c\	me-	2.a\	me-	2e/	-ne
4GG/	.	.	4GG/	.	.	.	.	.	.	.
4AA/	.	.	4AA/	.	2c\	-am	.	.	1ee	cau-
!LO:TX:t=P:problem=kreska pseudotaktowa	!	!	!LO:TX:t=P:problem=kreska pseudotaktowa	!	!	!	!	!	!	!
4BB/	.	.	4BB/	.	.	.	8g#\L	.	.	.
.	.	.	.	.	.	.	8f\J	.	.	.
!	!	!	!LO:LB:g=original	!	!	!	!	!	!	!
=9-	=9-	=9-	=9-	=9-	=9-	=9-	=9-	=9-	=9-	=9-
4C/	.	.	4C/	.	1r	.	1e	.	.	.
4BB/	.	.	4BB/	.	.	.	.	.	.	.
4C/	.	.	4C/	.	.	.	.	.	2cc\	-sam
!	!	!	!LO:TX:t=P:problem=kreska pseudotaktowa	!	!	!	!	!	!	!
4D/	.	.	4D/	.	.	.	.	.	.	.
!LO:TX:t=P:problem=kreska pseudotaktowa	!	!	!LO:TX:t=P:problem=kreska pseudotaktowa	!	!	!	!	!	!	!
1E	.	.	1E	.	2rc	.	1e	-am	1b	me-
!	!	!	!	!	!LO:TX:t=P:problem=kreska pseudotaktowa	!	!	!	!	!
.	.	.	.	.	2e\	de	.	.	.	.
=10-	=10-	=10-	=10-	=10-	=10-	=10-	=10-	=10-	=10-	=10-
!	!LO:SIC:s=n	!	!	!	!	!	!	!	!LO:TX:t=P:problem=kreska pseudotaktowa	!
2AA/	-	.	2AA/	-am	1c	gen-	1rg	.	1a	-am
!LO:LB:g=original	!	!	!LO:TX:t=P:problem=kreska pseudotaktowa	!	!	!	!	!	!	!
2A\	.	de	2A\	de	.	.	.	.	.	.
!	!	!	!LO:TX:t=P:problem=kreska pseudotaktowa	!	!	!	!LO:LB:g=original	!	!LO:LB:g=original	!
1F	.	gen-	1F	gen-	2A/	-te	2rf	.	2r	.
!	!	!	!	!	!LO:TX:t=P:problem=kreska pseudotaktowa	!	!LO:TX:t=P:problem=kreska pseudotaktowa	!	!	!
.	.	.	.	.	2A/	non	2a\	de	1a\	et
=11-	=11-	=11-	=11-	=11-	=11-	=11-	=11-	=11-	=11-	=11-
2D/	.	-te	[2D\	-te	2.d\	Sanc-	1f	gen-	.	.
!	!	!	!LO:TX:t=P:problem=kreska pseudotaktowa	!	!	!	!	!	!	!
2D/	.	.	2D\]	.	.	.	.	.	2a\	dis-
.	.	.	.	.	4c\	.	.	.	.	.
!	!	!	!	!	!	!	!LO:TX:a:t=P:global:problem=rozdzielacz słów	!	!	!
2.Gny\	.	.	2.Gny\	San-	4B\	.	2d,<\	-te	2b\	-cer-
.	.	.	.	.	4c\	.	.	.	.	.
.	.	.	.	.	4B\	.	2d\	non	2b\	-ne
!LO:TX:t=P:problem=kreska pseudotaktowa	!	!	!LO:TX:t=P:problem=kreska pseudotaktowa	!	!	!	!	!	!	!
4F\	.	.	4F\	.	4A\	.	.	.	.	.
=12-	=12-	=12-	=12-	=12-	=12-	=12-	=12-	=12-	=12-	=12-
4E\	.	.	4E\	.	2Gny/	.	2.gny\	San-	2cc\	cau-
4F\	.	.	4F\	.	.	.	.	.	.	.
!	!	!	!	!	!LO:LB:g=original	!	!	!	!	!
4E\	.	.	4E\	.	1c	.	.	.	2cc\	-sam
!	!	!	!LO:TX:t=P:problem=kreska pseudotaktowa	!	!	!	!	!	!	!
4D\	.	.	4D\	.	.	.	4f\	.	.	.
!	!	!	!	!	!	!	!	!	!LO:TX:t=P:problem=kreska pseudotaktowa	!
2C\	.	.	2C/	.	.	.	4e\	.	1ee	de
.	.	.	.	.	.	.	4c\	.	.	.
1E\	6	.	1E\	.	2c\	-ta	1g\	.	.	.
=13-	=13-	=13-	=13-	=13-	=13-	=13-	=13-	=13-	=13-	=13-
.	.	.	.	.	1re	.	.	.	2cc\	gen-
!LO:TX:t=P:problem=kreska pseudotaktowa	!	!	!LO:TX:t=P:problem=kreska pseudotaktowa	!	!	!	!	!	!	!
2F\	.	.	2F\	.	.	.	2f\	.	4a\	-te
.	.	.	.	.	.	.	.	.	4a\	non
!	!	!	!LO:LB:g=original	!	!	!	!	!	!	!
!	!	!	!LO:TX:t=P:problem=kreska pseudotaktowa	!	!	!	!	!	!	!
1G	.	.	1G	.	2rc	.	2d\	.	2.dd\	Sanc-
.	.	.	.	.	2d\	ab	2g\	.	.	.
.	.	.	.	.	.	.	.	.	4cc\	.
=14-	=14-	=14-	=14-	=14-	=14-	=14-	=14-	=14-	=14-	=14-
2G\	6	.	2G\	-cta	2.e\	ho-	0e	-cta	4b\	.
.	.	.	.	.	.	.	.	.	4a\	.
!	!	!	!LO:TX:t=P:problem=kreska pseudotaktowa	!	!	!	!	!	!	!
2G\	6	ab	2G\	ab	.	.	.	.	4b\	.
.	.	.	.	.	4e\	-mi-	.	.	4gny\	.
2.A\	.	ho-	2.A\	ho-	2c\	-ne	.	.	2.cc\	.
.	.	.	.	.	2c\	i-	.	.	.	.
!	!	!	!LO:TX:t=P:problem=kreska pseudotaktowa	!	!	!	!	!	!	!
4A\	.	-mi	4A\	-mi-	.	.	.	.	4b\	.
=15-	=15-	=15-	=15-	=15-	=15-	=15-	=15-	=15-	=15-	=15-
2F\	6	-ne	2F\	-ne	1d	-ni-	1rg	.	4a\	.
.	.	.	.	.	.	.	.	.	4b\	.
!	!	!	!LO:TX:t=P:problem=kreska pseudotaktowa	!	!	!	!	!	!	!
2F\	.	.	2F\	i-	.	.	.	.	4cc\	.
.	.	.	.	.	.	.	.	.	4a\	.
!	!	!	!LO:TX:t=P:problem=kreska pseudotaktowa	!	!LO:TX:t=P:problem=kreska pseudotaktowa	!	!	!	!	!
1G	.	.	1G	-ni-	1B	-quo	1g	ab	1dd	.
!LO:LB:g=original	!	!	!	!	!	!	!	!	!	!
=16-	=16-	=16-	=16-	=16-	=16-	=16-	=16-	=16-	=16-	=16-
2C/	6	.	2C/	-quo	1c	et	2.a\	ho-	1cc	-ta
1F	.	.	1F	et	.	.	.	.	.	.
.	.	.	.	.	.	.	4a\	-mi-	.	.
!	!	!	!	!	!	!	!	!	!LO:LB:g=original	!
.	.	.	.	.	2A/	do-	2f\	-ne	2rcc	.
!LO:TX:t=P:problem=kreska pseudotaktowa	!	!	!LO:TX:t=P:problem=kreska pseudotaktowa	!	!	!	!	!	!	!
2BB/	.	.	2BB/	do-	1B\	-lo-	2f\	i-	2dd\	ab,
=17-	=17-	=17-	=17-	=17-	=17-	=17-	=17-	=17-	=17-	=17-
!	!LO:SIC:s=n	!	!	!	!	!	!	!	!	!
1E	-	.	1E	-lo-	.	.	1g	-ni-	2.ee\	ho-
.	.	.	.	.	2E/	-so	.	.	.	.
.	.	.	.	.	.	.	.	.	4ee\	-mi-
!	!LO:SIC:s=n	!	!	!	!	!	!	!	!	!
2AA/	-	.	2AA/	-so	4e\	e-	2e\	-quo	2cc\	-ne
.	.	.	.	.	4c\	.	.	.	.	.
!	!	!	!	!	!LO:TX:t=P:problem=kreska pseudotaktowa	!	!	!	!	!
4A\	6	.	4A\	e-	[y2f\	.	1a\	et	2cc\	i-
!LO:TX:t=P:problem=kreska pseudotaktowa	!	!	!LO:TX:t=P:problem=kreska pseudotaktowa	!	!	!	!	!	!	!
4F\	.	.	4F\	.	.	.	.	.	.	.
=18-	=18-	=18-	=18-	=18-	=18-	=18-	=18-	=18-	=18-	=18-
!	!	!	!	!	!LO:N:xstem:cue	!	!	!	!	!
2.B-X\	7	.	2.B-X\	.	4f\]	.	.	.	1dd	-ni-
.	.	.	.	.	4e\	.	.	.	.	.
.	6	.	.	.	4d\	.	2g\	.	.	.
!	!	!	!LO:TX:t=P:problem=kreska pseudotaktowa	!	!	!	!	!	!	!
4A\	.	.	4A\	.	4B-X\	.	.	.	.	.
!	!	!	!	!	!	!	!LO:LB:g=original	!	!	!
4G\	6	.	4G\	.	2.e\	.	2g\	do-	2g/	-quo
4E\	.	.	4E\	.	.	.	.	.	.	.
!LO:TX:t=P:problem=kreska pseudotaktowa	!	!	!LO:LB:g=original	!	!	!	!	!	!	!
[y2A\	5	.	2.A\	.	.	.	1e\	-lo-	1cc\	et
.	.	.	.	.	4d\	.	.	.	.	.
!	!	!	!	!	!LO:LB:g=original	!	!	!	!	!
=19-	=19-	=19-	=19-	=19-	=19-	=19-	=19-	=19-	=19-	=19-
!LO:N:xstem:cue	!	!	!	!	!	!	!	!	!	!
4A\]	.	.	.	.	4c\	.	.	.	.	.
4G\	.	.	4G\	.	4A\	.	.	.	.	.
4F\	6	.	4F\	.	2.d\	.	2f\	-ſo	2a\	do-
!	!	!	!LO:TX:t=P:problem=kreska pseudotaktowa	!	!	!	!	!	!	!
4D\	.	.	4D\	.	.	.	.	.	.	.
2.G\	.	.	2.G\	.	.	.	1d	e-	1b	-lo-
.	.	.	.	.	4c\	-ri-	.	.	.	.
.	.	.	.	.	4Bn\	-ge	.	.	.	.
!LO:TX:t=P:problem=kreska pseudotaktowa	!	!	!LO:TX:t=P:problem=kreska pseudotaktowa	!	!LO:TX:t=P:problem=kreska pseudotaktowa	!	!	!	!	!
4F\	.	.	4F\	.	4A\	.	.	.	.	.
=20-	=20-	=20-	=20-	=20-	=20-	=20-	=20-	=20-	=20-	=20-
2E\	#6r	.	2E\	.	4G/	.	2g\	.	2cc#X\	-so
.	.	.	.	.	4E/	.	.	.	.	.
!	!	!	!LO:TX:t=P:problem=kreska pseudotaktowa	!	!	!	!	!	!	!
2D/	.	.	2D\	.	2A/	.	2f\	.	2.dd\	e-
!	!	!	!	!	!LO:TX:a:t=P:problem=rozdzielacz słów	!	!	!	!	!
1AA	#4r	.	2AA/	-ri-	2A,</	me,	2.e\	-ri-	.	.
.	.	.	.	.	.	.	.	.	4dd\	-ri-
!	!	!	!LO:TX:t=P:problem=kreska pseudotaktowa	!	!	!	!	!	!	!
.	.	.	2AA/	-ge	1A\	Qui-	.	.	2cc#X\	-ge
!	!	!	!	!	!	!	!LO:TX:t=P:problem=kreska pseudotaktowa	!	!	!
.	.	.	.	.	.	.	4e\	-ge	.	.
!LO:LB:g=original	!	!	!	!	!	!	!	!	!	!
=21-	=21-	=21-	=21-	=21-	=21-	=21-	=21-	=21-	=21-	=21-
!	!LO:SIC:s=n	!	!	!	!	!	!	!	!	!
2D/	-	.	2D\	me	.	.	2f\	me	1dd	me
!	!	!	!	!	!LO:TX:t=P:problem=kreska pseudotaktowa	!	!	!	!	!
1D	.	qui-	1D	qui-	2A/	-a	1f	Qui-	.	.
.	.	.	.	.	2F/	tu	.	.	0r	.
!LO:TX:t=P:problem=kreska pseudotaktowa	!	!	!LO:TX:t=P:problem=kreska pseudotaktowa	!	!	!	!	!	!	!
2D/	.	-a	2D\	-a	2F/	es	2d\	-a	.	.
=22-	=22-	=22-	=22-	=22-	=22-	=22-	=22-	=22-	=22-	=22-
2C/	.	Tu-	2C/	tu	2.c\	De-	2e\	tu	.	.
!	!	!	!LO:TX:t=P:problem=kreska pseudotaktowa	!	!	!	!	!	!	!
2C/	.	-e	2C/	es	.	.	2e\	es	.	.
.	.	.	.	.	4B\	.	.	.	.	.
2.F\	.	.	2.F\	De-	4A\	.	4f\	De-	2r	.
.	.	.	.	.	4B\	.	4c\	.	.	.
.	.	.	.	.	4c\	.	2.f\	.	1a\	Qui-
!LO:TX:t=P:problem=kreska pseudotaktowa	!	!	!LO:TX:t=P:problem=kreska pseudotaktowa	!	!LO:TX:t=P:problem=kreska pseudotaktowa	!	!	!	!	!
4E\	.	.	4E\	.	4A\	.	.	.	.	.
=23-	=23-	=23-	=23-	=23-	=23-	=23-	=23-	=23-	=23-	=23-
4D\	.	.	4D\	.	4d\	.	.	.	.	.
4E\	.	.	4E\	.	4A\	.	4e\	.	.	.
4F\	.	.	4F\	.	1d	.	1d	-us	2a/	-a
4D\	.	.	4D\	.	.	.	.	.	.	.
!	!	!	!LO:LB:g=original	!	!	!	!	!	!LO:LB:g=original	!
4G\	.	.	4G\	.	.	.	.	.	2g/	tu
4D\	.	.	4D\	.	.	.	.	.	.	.
!LO:TX:t=P:problem=kreska pseudotaktowa	!	!	!	!	!LO:LB:g=original	!	!LO:TX:t=P:problem=kreska pseudotaktowa	!	!	!
2G\	.	.	1G\	.	2B\	-us	2d\	tu	2g/	es
.	5	.	.	.	.	.	.	.	.	.
=24-	=24-	=24-	=24-	=24-	=24-	=24-	=24-	=24-	=24-	=24-
2G\	4 2	.	.	.	1A	me-	2e\	es	4a\	De-
.	.	.	.	.	.	.	.	.	4a\	-us
!	!	!	!LO:TX:t=P:problem=kreska pseudotaktowa	!	!	!	!	!	!	!
2F\	6	.	2F\	-us	.	.	2f\	.	1dd	me-
!LO:TX:t=P:problem=kreska pseudotaktowa	!	!	!LO:TX:t=P:problem=kreska pseudotaktowa	!	!	!	!	!	!	!
1E	7	.	1E	me-	1G	-us	2g\	De-	.	.
.	6	.	.	.	.	.	2e\	-us	2cc#X\	.
!	!	!	!	!	!	!	!LO:LB:g=original	!	!	!
=25-	=25-	=25-	=25-	=25-	=25-	=25-	=25-	=25-	=25-	=25-
2D/	.	.	2D\	-us	2d\	De-	2f\	me-	2dd\	-us
!	!	!	!LO:TX:t=P:problem=kreska pseudotaktowa	!	!	!	!	!	!LO:TX:t=P:problem=kreska pseudotaktowa	!
2A\	.	.	2A\	et	2c\	-us	2e\	.	2rcc	.
2A\	4 2	.	2A\	for-	1B	me-	2d\	-us	2rcc	.
!LO:LB:g=original	!	!	!LO:TX:t=P:problem=kreska pseudotaktowa	!	!	!	!LO:TX:t=P:problem=kreska pseudotaktowa	!	!	!
2G\	6	.	2G\	-ti-	.	.	2rf	.	2ee\	et
=26-	=26-	=26-	=26-	=26-	=26-	=26-	=26-	=26-	=26-	=26-
!	!	!	!LO:TX:t=P:problem=kreska pseudotaktowa	!	!	!	!	!	!	!
1F	7	.	1F	-tu-	1A	-us	2rf	.	2ee\	for-
.	6	.	.	.	.	.	2a\	et	2dd\	-ti-
2E\	6 4	.	2E\	-do	0r	.	2a\	for-	2ccny\	-tu-
!LO:TX:t=P:problem=kreska pseudotaktowa	!LO:SIC:s=3n	!	!LO:TX:t=P:problem=kreska pseudotaktowa	!	!	!	!	!	!LO:TX:t=P:problem=kreska pseudotaktowa	!
2E\	5 -3r	.	2E\	et	.	.	2g\	-ti-	2b\	-do
=27-	=27-	=27-	=27-	=27-	=27-	=27-	=27-	=27-	=27-	=27-
2E\	4 2	.	2E\	for-	.	.	2f\	-tu-	4a\	me-
.	.	.	.	.	.	.	.	.	4g\	.
!	!	!	!LO:TX:t=P:problem=kreska pseudotaktowa	!	!	!	!LO:TX:t=P:problem=kreska pseudotaktowa	!	!	!
2D\	.	.	2D\	-ti-	.	.	2f\	-do	4a\	.
.	.	.	.	.	.	.	.	.	4b\	.
!	!	!	!LO:TX:t=P:problem=kreska pseudotaktowa	!	!	!	!	!	!	!
1C	.	.	1C	-tu-	2rc	.	4e\	me-	4cc\	.
.	.	.	.	.	.	.	4d\	.	4dd\	.
.	.	.	.	.	2e\	et	4c\	.	2.ee\	.
.	.	.	.	.	.	.	4B\	.	.	.
=28-	=28-	=28-	=28-	=28-	=28-	=28-	=28-	=28-	=28-	=28-
!LO:TX:t=P:problem=kreska pseudotaktowa	!	!	!LO:TX:t=P:problem=kreska pseudotaktowa	!	!	!	!	!	!	!
1AA-X	5	.	1AA	-do	2e\	for-	4c\	.	.	.
.	.	.	.	.	.	.	4A/	.	4dd\	.
!	!	!	!	!	!	!	!LO:TX:t=P:problem=kreska pseudotaktowa	!	!	!
.	.	.	.	.	2d\	-ti-	[2a\	.	4cc\	.
.	7	.	.	.	.	.	.	.	4b\	.
!	!	!	!	!	!	!	!LO:N:xstem:cue	!	!LO:LB:g=original	!
2.D\	.	.	2.D\	me-	2c\	-tu-	4a\]	.	2a\	.
.	.	.	.	.	.	.	4g\	.	.	.
.	.	.	.	.	2A\	-do	4f\	.	2.dd\	.
4E\	.	.	4E\	.	.	.	4e\	.	.	.
!	!	!	!LO:LB:g=original	!	!	!	!	!	!	!
=29-	=29-	=29-	=29-	=29-	=29-	=29-	=29-	=29-	=29-	=29-
2F\	6	.	2F\	.	2.d\	me-	2d\	.	.	.
.	.	.	.	.	.	.	.	.	4cc\	.
!	!	!	!LO:TX:t=P:problem=kreska pseudotaktowa	!	!	!	!	!	!	!
2D/	.	.	2D\	.	.	.	2f\	.	4b\	.
!	!	!	!	!	!	!	!	!	!LO:TX:t=P:problem=kreska pseudotaktowa	!
.	.	.	.	.	4c\	.	.	.	4a\	.
!	!	!	!LO:TX:t=P:problem=kreska pseudotaktowa	!	!	!	!	!	!	!
1E	5 #	.	0E	.	2B\	.	0e	-a	2g#X\	.
.	6 4	.	.	.	2c\	.	.	.	1a\	.
=30-	=30-	=30-	=30-	=30-	=30-	=30-	=30-	=30-	=30-	=30-
!	!	!	!	!	!LO:TX:t=P:problem=kreska pseudotaktowa	!	!	!	!	!
1E	5 4	.	.	.	1B	.	.	.	.	.
!	!	!	!	!	!	!	!	!	!LO:TX:t=P:problem=kreska pseudotaktowa	!
.	5 #	.	.	.	.	.	.	.	2g#X\	.
2AAny/	x #	.	2AA/	-a	2c#X\	-a	2e,<\	.	2a\	-a
!	!LO:SIC:s=n	!	!	!	!LO:LB:g=original	!	!	!	!	!
1D\	-	.	1D\	for-	1d\	for-	1f\	for-	1a\	for-
=31-	=31-	=31-	=31-	=31-	=31-	=31-	=31-	=31-	=31-	=31-
.	.	.	.	.	.	.	.	.	.	.
!	!	!	!LO:TX:t=P:problem=kreska pseudotaktowa	!	!	!	!	!	!	!
2C#X/	.	.	2C#X/	-ti-	2A\	-ti-	2e\	-ti-	2a\	-ti-
!LO:LB:g=original	!	!	!	!	!	!	!LO:LB:g=original	!	!	!
2D/	.	.	2D/	-tu-	2d\	-tu-	2e\	-tu-	2a\	-tu-
!	!	!	!LO:TX:t=P:problem=kreska pseudotaktowa	!	!	!	!	!	!	!
2AA/	#	.	2AA/	-do	2c#X\	-do	2e\	-do	2a\	-do
=32-	=32-	=32-	=32-	=32-	=32-	=32-	=32-	=32-	=32-	=32-
!	!	!	!LO:TX:t=P:problem=kreska pseudotaktowa	!	!	!	!	!	!	!
0D	.	.	0D	me-	0d	me-	0f	me-	0a	me-
=33-	=33-	=33-	=33-	=33-	=33-	=33-	=33-	=33-	=33-	=33-
!	!	!	!LO:TX:b:t=Volti	!	!	!	!	!	!	!
!	!	!	!LO:TX:a:t=Emitte lucem tuam \net Veritatem tuam	!	!	!	!	!	!	!
!	!	!	!LO:TX:a:t=Vers(us)	!	!	!	!LO:TX:b:t=Verſus Emitte lucem tuam	!	!LO:TX:b:t=Vers(us) Emitter lucem tuam \net veritatem tuum.	!
0AA;	.	.	0AA;	-a	0c#X;<	-a.	0e;	-a	0a	-a.
!	!	!	!LO:PB:g=original	!	!	!	!LO:LB:g=original	!	!LO:LB:g=original	!
=||	=||	=||	=||	=||	=||	=||	=||	=||	=||	=||
*>B	*	*	*>B	*	*>B	*	*>B	*	*>B	*
*lig	*	*	*	*	*lig	*	*	*	*	*
!LO:TX:b:t=Inton&colon;	!	!	!	!	!LO:TX:a:t=Intonatio.	!	!	!	!	!
!LO:TX:a:t=Vers(us)	!	!	!	!	!LO:TX:a:t=Vers(us)	!	!	!	!	!
A	.	E-	.	.	A	E-	.	.	.	.
G	.	.	.	.	G	.	.	.	.	.
*Xlig	*	*	*	*	*Xlig	*	*	*	*	*
*lig	*	*	*	*	*lig	*	*	*	*	*
G	.	-mit-	.	.	G	-mit-	.	.	.	.
A	.	.	.	.	A	.	.	.	.	.
*Xlig	*	*	*	*	*Xlig	*	*	*	*	*
A	.	-te	.	.	A	-te	.	.	.	.
A	.	lu-	.	.	A	lu-	.	.	.	.
A	.	-cem	.	.	A	-cem	.	.	.	.
!	!	!	!	!	!LO:LB:g=original	!	!	!	!	!
A	.	tu-	.	.	A	tu-	.	.	.	.
!LO:TX:t=P:problem=kreska pseudotaktowa	!	!	!	!	!LO:TX:t=P:problem=kreska pseudotaktowa	!	!	!	!	!
A	.	-am	.	.	A	-am	.	.	.	.
A	.	et	.	.	A	et	.	.	.	.
A	.	ve-	.	.	A	ve-	.	.	.	.
A	.	-ri-	.	.	A	-ri-	.	.	.	.
!LO:LB:g=original	!	!	!	!	!	!	!	!	!	!
*lig	*	*	*	*	*lig	*	*	*	*	*
G	.	-ta-	.	.	G	-ta-	.	.	.	.
B	.	.	.	.	B	.	.	.	.	.
*Xlig	*	*	*	*	*Xlig	*	*	*	*	*
B	.	-tem	.	.	B	-tem	.	.	.	.
*lig	*	*	*	*	*lig	*	*	*	*	*
A	.	tu-	.	.	A	tu-	.	.	.	.
B	.	.	.	.	B	.	.	.	.	.
*Xlig	*	*	*	*	*Xlig	*	*	*	*	*
A	.	-am.	.	.	A	-am.	.	.	.	.
=34||	=34||	=34||	=34||	=34||	=34||	=34||	=34||	=34||	=34||	=34||
*>C	*	*	*>C	*	*>C	*	*>C	*	*>C	*
*M2/1	*	*	*M2/1	*	*M2/1	*	*M2/1	*	*M2/1	*
*met(C|)	*	*	*met(C|)	*	*met(C|)	*	*met(C|)	*	*met(C|)	*
*	*	*	*	*	*lig	*	*	*	*	*
!LO:TX:b:t=Ipsa me	!	!	!LO:TX:t=P:problem=kreska pseudotaktowa	!	!	!	!	!	!	!
1A	.	.	1r	.	1A	I-	0r	.	0r	.
!	!	!	!LO:TX:t=P:problem=kreska pseudotaktowa	!	!	!	!	!	!	!
1E	.	.	1E	Ip-	1G	.	.	.	.	.
*	*	*	*	*	*Xlig	*	*	*	*	*
=35-	=35-	=35-	=35-	=35-	=35-	=35-	=35-	=35-	=35-	=35-
*	*	*	*	*	*lig	*	*	*	*	*
2E\	.	.	2E\	-sa	1G	-psa	1e	Ip-	1r	.
!	!	!	!LO:TX:t=P:problem=kreska pseudotaktowa	!	!	!	!	!	!	!
2E\	.	.	2E\	me	.	.	.	.	.	.
2C/	6	.	2C/	ip-	1A	.	2e\	-ſa	1a	Ip-
*custos:D	*	*	*	*	*	*	*	*	*	*
!LO:TX:t=P:problem=kreska pseudotaktowa	!	!	!LO:TX:t=P:problem=kreska pseudotaktowa	!	!	!	!LO:TX:t=P:problem=kreska pseudotaktowa	!	!	!
2AA/	.	.	2AA/	-sa	.	.	2e\	me	.	.
*	*	*	*	*	*Xlig	*	*	*	*	*
!LO:PB:g=original	!	!	!	!	!	!	!	!	!	!
=36-	=36-	=36-	=36-	=36-	=36-	=36-	=36-	=36-	=36-	=36-
4D\	.	.	4D\	me	1A	me	(4d\	de-	2a\	-sa
4C\	.	.	4C\	.	.	.	4e\)	.	.	.
4D\	.	.	4D\	.	.	.	4f\	-du-	2a\	me
!LO:TX:t=P:problem=kreska pseudotaktowa	!	!	!LO:TX:t=P:problem=kreska pseudotaktowa	!	!	!	!	!	!	!
4E\	.	.	4E\	.	.	.	4g\	.	.	.
4F\	.	.	(4F\	de-	2A/	de-	2.a\	-xe-	2f/	de-
4E\	.	.	4E\)	.	.	.	.	.	.	.
!	!	!	!	!	!	!	!	!	!LO:TX:t=P:problem=kreska pseudotaktowa	!
4F\	.	.	(4F\	-dux-	2A/	-du-	.	.	2d/	-du-
!	!	!	!LO:TX:t=P:problem=kreska pseudotaktowa	!	!	!	!	!	!	!
4G\	.	.	4G\)	.	.	.	8g\L	.	.	.
.	.	.	.	.	.	.	8f\J	.	.	.
!	!	!	!	!	!LO:LB:g=original	!	!	!	!	!
=37-	=37-	=37-	=37-	=37-	=37-	=37-	=37-	=37-	=37-	=37-
2.A\	.	.	2.A\	-e-	1A	-xe-	1e	.	1a	-xe-
!	!	!	!LO:TX:t=P:problem=kreska pseudotaktowa	!	!	!	!	!	!	!
4G\	.	.	4G\	.	.	.	.	.	.	.
!	!	!	!	!	!	!	!LO:TX:a:t=P:problem=drugi rozdzielacz słów na górze	!	!	!
4F\	6	.	4F\	.	1.A	-runt	2f,<\	-runt,	2a\	-runt
4E\	.	.	4E\	.	.	.	.	.	.	.
!	!	!	!	!	!	!	!LO:TX:t=P:problem=kreska pseudotaktowa	!	!	!
4F\	.	.	4F\	.	.	.	2d\	et	2a\	et
!LO:TX:t=P:problem=kreska pseudotaktowa	!	!	!	!	!	!	!	!	!	!
4D\	.	.	4D\	.	.	.	.	.	.	.
!	!	!	!LO:LB:g=original	!	!	!	!	!	!	!
=38-	=38-	=38-	=38-	=38-	=38-	=38-	=38-	=38-	=38-	=38-
!	!	!	!LO:TX:t=P:problem=kreska pseudotaktowa	!	!	!	!	!	!	!
1AA	7	.	1AA	-runt,	.	.	2d\	ad-	2a\	ad-
!	!	!	!	!	!LO:TX:t=P:problem=kreska pseudotaktowa	!	!	!	!	!
.	#	.	.	.	2A/	et	2c#X\	-du-	2a\	-du-
!	!LO:SIC:s=n	!	!LO:TX:a:t=P:problem=rozdzielacz słów	!	!	!	!	!	!LO:LB:g=original	!
2D/	-	.	2D,<\	et	2A/	ad-	4d\	-xe-	4f\	-xe-
.	.	.	.	.	.	.	4c#\	.	4d/	.
!	!	!	!LO:TX:t=P:problem=kreska pseudotaktowa	!	!	!	!	!	!	!
2D/	.	.	2D\	de-	2A/	-du-	4d\	.	4a\	.
.	.	.	.	.	.	.	4e\	.	4gny/	.
=39-	=39-	=39-	=39-	=39-	=39-	=39-	=39-	=39-	=39-	=39-
2D/	.	.	2D/	-dux-	1A	-xe-	4f\	.	2f/	.
.	.	.	.	.	.	.	4g\	.	.	.
!LO:TX:t=P:problem=kreska pseudotaktowa	!	!	!LO:TX:t=P:problem=kreska pseudotaktowa	!	!	!	!	!	!	!
2C#X/	.	.	2C#X/	.	.	.	4a\	.	2e/	.
.	.	.	.	.	.	.	4g\	.	.	.
!	!	!	!LO:TX:t=P:problem=kreska pseudotaktowa	!	!	!	!	!	!	!
1D	.	.	1D	-e-	1.A	-runt	1f	.	2d/	-runt
.	.	.	.	.	.	.	.	.	2dd\	et
!	!	!	!	!	!	!	!LO:LB:g=original	!	!	!
=40-	=40-	=40-	=40-	=40-	=40-	=40-	=40-	=40-	=40-	=40-
!	!LO:SIC:s=n	!	!	!	!	!	!LO:TX:t=P:problem=kreska pseudotaktowa	!	!	!
2AA/	-	.	2AA/	-runt	.	.	1e	-runt	4cc\	ad-
.	.	.	.	.	.	.	.	.	4b\	.
!	!	!	!LO:TX:t=P:problem=kreska pseudotaktowa	!	!LO:TX:t=P:problem=kreska pseudotaktowa	!	!	!	!	!
2AA/	.	.	2AA/	im-	2A/	in	.	.	4cc\	-du-
.	.	.	.	.	.	.	.	.	4dd\	.
2Cny/	6	.	2Cny/	-mon-	2A/	mon-	2rf	.	4ee\	-xe-
.	.	.	.	.	.	.	.	.	4dd\	.
!	!	!	!LO:TX:t=P:problem=kreska pseudotaktowa	!	!	!	!	!	!	!
2AA/	.	.	2AA/	-tem	2A/	-tem	2e\	in	4cc\	.
.	.	.	.	.	.	.	.	.	4b\	.
!LO:LB:g=original	!	!	!	!	!	!	!	!	!	!
=41-	=41-	=41-	=41-	=41-	=41-	=41-	=41-	=41-	=41-	=41-
4D\	.	.	4D\	San-	2A/	San-	2f\	mon-	2a\	.
4C\	.	.	4C\	.	.	.	.	.	.	.
!	!	!	!	!	!LO:TX:t=P:problem=kreska pseudotaktowa	!	!	!	!	!
4D\	.	.	4D\	.	2A/	-ctum	2f\	-tem	2.dd\	.
!	!	!	!LO:TX:t=P:problem=kreska pseudotaktowa	!	!	!	!	!	!	!
4E\	.	.	4E\	.	.	.	.	.	.	.
2.F\	6	.	2.F\	.	1A	tu-	2.d\	ſan-	.	.
.	.	.	.	.	.	.	.	.	4a\	.
.	.	.	.	.	.	.	.	.	1dd\	.
!LO:TX:t=P:problem=kreska pseudotaktowa	!	!	!LO:TX:t=P:problem=kreska pseudotaktowa	!	!	!	!	!	!	!
4G\	.	.	4G\	-ctam	.	.	4g\	-ctum	.	.
=42-	=42-	=42-	=42-	=42-	=42-	=42-	=42-	=42-	=42-	=42-
!	!	!	!LO:TX:t=P:problem=kreska pseudotaktowa	!	!LO:TX:t=P:problem=kreska pseudotaktowa	!	!	!	!	!
1A	4	.	1A	tu-	1A	-tum	1e	tu-	.	.
!	!	!	!	!	!	!	!	!	!LO:TX:t=P:problem=kreska pseudotaktowa	!
.	3	.	.	.	.	.	.	.	2cc#X\	.
!	!LO:SIC:s=n	!	!LO:LB:g=original	!	!LO:PB:g=original	!	!	!	!	!
2D/	-	.	2D\	-um	2A/	et	1f	-um	2dd\	-runt
1F\	.	.	1F\	et	2A/	in	.	.	2a\	in
=43-	=43-	=43-	=43-	=43-	=43-	=43-	=43-	=43-	=43-	=43-
!	!	!	!	!	!	!	!	!	!LO:N:acc=-	!
.	.	.	.	.	2A/	ta-	2rf	.	2ccn\	mon-
!LO:TX:t=P:problem=kreska pseudotaktowa	!	!	!LO:TX:t=P:problem=kreska pseudotaktowa	!	!	!	!	!	!	!
2F\	.	.	2F\	in	2A/	-ber-	1f	et	2a\	-tem
!	!	!	!	!	!	!	!	!	!LO:LB:g=original	!
2D\	.	.	2D\	ta-	1F	-na-	.	.	2dd\	Sanc-
!	!	!	!LO:TX:t=P:problem=kreska pseudotaktowa	!	!	!	!LO:TX:t=P:problem=kreska pseudotaktowa	!	!	!
2D\	.	.	2D\	-ber-	.	.	2f\	in	2dd\	-tum
=44-	=44-	=44-	=44-	=44-	=44-	=44-	=44-	=44-	=44-	=44-
2.G\	5	.	2.G\	-na-	1G	-cu-	2d\	ta-	4b\	tu-
!	!	!	!	!	!	!	!	!	!LO:TX:a:t=P:problem=rozdzielacz słów	!
.	.	.	.	.	.	.	.	.	4b,<\	-um,
.	.	.	.	.	.	.	2e\	-ber-	1ee	et
!	!	!	!LO:TX:t=P:problem=kreska pseudotaktowa	!	!	!	!	!	!	!
4G\	6	.	4G\	-cu-	.	.	.	.	.	.
!LO:TX:t=P:problem=kreska pseudotaktowa	!	!	!LO:TX:t=P:problem=kreska pseudotaktowa	!	!	!	!	!	!	!
1F	7	.	1F	-la	1A	-la	2f\	-na-	.	.
!	!LO:SIC:s=6n	!	!	!	!	!	!	!	!LO:TX:t=P:problem=kreska pseudotaktowa	!
.	-6r	.	.	.	.	.	2d\	.	2dd\	in
=45-	=45-	=45-	=45-	=45-	=45-	=45-	=45-	=45-	=45-	=45-
!	!	!	!LO:TX:t=P:problem=kreska pseudotaktowa	!	!	!	!	!	!	!
1E	7	.	1E	.	2G/	tu-	2g\	[-na-]	2ee\	ta-
.	6	.	.	.	2E/	.	4g\	-cu-	2ee\	-ber-
!	!LO:SIC:s=n	!	!	!	!	!	!	!	!	!
.	-	.	.	.	.	.	4g\	-la	.	.
!	!LO:SIC:s=n	!	!LO:TX:t=P:problem=kreska pseudotaktowa	!	!	!	!	!	!	!
0D	-	.	0D	tu-	0F	.	1f	tu-	2a\	-na-
.	.	.	.	.	.	.	.	.	4a\	-cu-
.	.	.	.	.	.	.	.	.	4a\	-la
=46-	=46-	=46-	=46-	=46-	=46-	=46-	=46-	=46-	=46-	=46-
.	.	.	.	.	.	.	1d	.	1a	tu-
!	!	!	!LO:TX:b:t=Judica me \nut Supra	!	!LO:TX:b:t=Judica me \nut supra.	!	!LO:TX:b:t=Judica me \nut Supra	!	!LO:TX:b:t=Judica me ut Supra	!
0AA;;	.	.	0AA	-a	0E	-a.	0el	-a	0al;;	-a
==	==	==	==	==	==	==	==	==	==	==
*-	*-	*-	*-	*-	*-	*-	*-	*-	*-	*-
!!!system-decoration: [g1]s5
!!!RDF**kern: < = below
!!!RDF**kern: l = terminal long
!!!AIN: 1 alto 2 empty 1 tenor 1 vox
!!!ENC: Marta Lawrence
!!!END: 2021-03-25
!!!ENC: Andrzej Gręziak
!!!END: 2021-03-23
